X: 789
T: Da honghua
%%abc-version 2.0
%%abcx-abcm2ps-target-version 5.9.1 (29 Sep 2008)
%%abc-creator hum2abc beta
%%abcx-conversion-date 2013/10/02 07:52:31
%%abc-edited-by Helmut Schaffrath
%%humdrum-veritas 270784240
%%humdrum-veritas-data 2175647192
%%continueall 1
%%barnumbers 0
L: 1/8
M: 2/4
K: D
d> f e3/ f/ [I:setbarnb 1]| 
d> f e3/ f/ | 
d2e d | 
c BA2 | 
F A f e/ d/ | 
B d B A | 
B d B A | 
F A B/ A/ F/ E/ | 
D4 |]  



